X: 75
T:Tank,The. GS.075
M:2/4
L:1/8
Q:400
S:George Spencer m/s, Leeds,1831
R:Misc.
O:England
A:Leeds
N:"1" The chord at the end of the A music  has a vertical curved line,
N:like a vertical slur  n front of it...'1831' is written on the stave
N:after the last double bar.
H:1831
Z:vmp.Cherri Graebe
K:BB major
B2b2 | G2g2 | (fd).c.B | (ec).B.A | .d.e f2 |! .e.f.g2 | fga2 | 
"1"[B4b4]:||:d2dd | f3 d |! (ge) (ec) 
 (cA) (AF) | d2 de | f3 b | gecA | [D4B4]:||
